svgs/capcut.svg

<svg width="192" height="192" viewBox="0 0 192 192" fill="none" xmlns="http://www.w3.org/2000/svg"><path d="M170 42 22 124v14c0 6.627 5.373 12 12 12h78c6.627 0 12-5.373 12-12v-9.5" stroke="#000" stroke-width="12" stroke-linecap="round" stroke-linejoin="round"/><path d="M170 150 22 68V54c0-6.627 5.373-12 12-12h78c6.627 0 12 5.373 12 12v9.5" stroke="#000" stroke-width="12" stroke-linecap="round" stroke-linejoin="round"/></svg>

<?xml version="1.0" encoding="UTF-8" standalone="no"?><svg xmlns:android="http://schemas.android.com/apk/res/android" height="192" width="192" xmlns="http://www.w3.org/2000/svg">
  <path d="M170,42L22,124V138C22,144.63 27.37,150 34,150H112C118.63,150 124,144.63 124,138V128.5" fill="#000000" fill-opacity="0.0" stroke="#000000" stroke-linecap="round" stroke-linejoin="round" stroke-width="12"/>
  <path d="M170,150L22,68V54C22,47.37 27.37,42 34,42H112C118.63,42 124,47.37 124,54V63.5" fill="#000000" fill-opacity="0.0" stroke="#000000" stroke-linecap="round" stroke-linejoin="round" stroke-width="12"/>
</svg>
